icons/svg/shields/h_generator_gas_shield.svg

<?xml version="1.0" encoding="UTF-8" standalone="no"?>
<!-- Created with Inkscape (http://www.inkscape.org/) -->

<svg
   xmlns:dc="http://purl.org/dc/elements/1.1/"
   xmlns:cc="http://creativecommons.org/ns#"
   xmlns:rdf="http://www.w3.org/1999/02/22-rdf-syntax-ns#"
   xmlns:svg="http://www.w3.org/2000/svg"
   xmlns="http://www.w3.org/2000/svg"
   xmlns:sodipodi="http://sodipodi.sourceforge.net/DTD/sodipodi-0.dtd"
   xmlns:inkscape="http://www.inkscape.org/namespaces/inkscape"
   version="1.0"
   width="16"
   height="16"
   id="svg2"
   sodipodi:version="0.32"
   inkscape:version="0.91 r13725"
   sodipodi:docname="h_generator_gas_shield.svg"
   inkscape:output_extension="org.inkscape.output.svg.inkscape">
  <metadata
     id="metadata10">
    <rdf:RDF>
      <cc:Work
         rdf:about="">
        <dc:format>image/svg+xml</dc:format>
        <dc:type
           rdf:resource="http://purl.org/dc/dcmitype/StillImage" />
        <cc:license
           rdf:resource="http://web.resource.org/cc/PublicDomain" />
        <dc:language>en</dc:language>
        <dc:title />
      </cc:Work>
    </rdf:RDF>
  </metadata>
  <sodipodi:namedview
     inkscape:window-height="1006"
     inkscape:window-width="1920"
     inkscape:pageshadow="2"
     inkscape:pageopacity="0.0"
     guidetolerance="10.0"
     gridtolerance="10.0"
     objecttolerance="10.0"
     borderopacity="1.0"
     bordercolor="#666666"
     pagecolor="#ffffff"
     id="base"
     showgrid="false"
     inkscape:zoom="32"
     inkscape:cx="4.7508786"
     inkscape:cy="8.5424799"
     inkscape:window-x="1920"
     inkscape:window-y="0"
     inkscape:current-layer="svg2"
     inkscape:window-maximized="1"
     showguides="true"
     inkscape:guide-bbox="true" />
  <defs
     id="defs4">
    <inkscape:perspective
       sodipodi:type="inkscape:persp3d"
       inkscape:vp_x="0 : 290 : 1"
       inkscape:vp_y="0 : 1000 : 0"
       inkscape:vp_z="580 : 290 : 1"
       inkscape:persp3d-origin="290 : 193.33333 : 1"
       id="perspective12" />
    <style
       type="text/css"
       id="style6">
   
    .fil0 {fill:#EF7900}
   
  </style>
    <inkscape:perspective
       id="perspective6807"
       inkscape:persp3d-origin="29.116032 : 19.410688 : 1"
       inkscape:vp_z="58.232063 : 29.116032 : 1"
       inkscape:vp_y="0 : 1000 : 0"
       inkscape:vp_x="0 : 29.116032 : 1"
       sodipodi:type="inkscape:persp3d" />
    <inkscape:perspective
       id="perspective6954"
       inkscape:persp3d-origin="290 : 193.33333 : 1"
       inkscape:vp_z="580 : 290 : 1"
       inkscape:vp_y="0 : 1000 : 0"
       inkscape:vp_x="0 : 290 : 1"
       sodipodi:type="inkscape:persp3d" />
    <inkscape:perspective
       id="perspective2541"
       inkscape:persp3d-origin="240 : 160 : 1"
       inkscape:vp_z="480 : 240 : 1"
       inkscape:vp_y="0 : 1000 : 0"
       inkscape:vp_x="0 : 240 : 1"
       sodipodi:type="inkscape:persp3d" />
    <inkscape:perspective
       id="perspective2750"
       inkscape:persp3d-origin="215 : 143.33333 : 1"
       inkscape:vp_z="430 : 215 : 1"
       inkscape:vp_y="0 : 1000 : 0"
       inkscape:vp_x="0 : 215 : 1"
       sodipodi:type="inkscape:persp3d" />
    <inkscape:perspective
       id="perspective3730"
       inkscape:persp3d-origin="88.929146 : 101.19778 : 1"
       inkscape:vp_z="177.85829 : 151.79668 : 1"
       inkscape:vp_y="0 : 1000 : 0"
       inkscape:vp_x="0 : 151.79668 : 1"
       sodipodi:type="inkscape:persp3d" />
  </defs>
  <path
     sodipodi:type="inkscape:offset"
     inkscape:radius="0.76034534"
     inkscape:original="M 4.59375 0.6875 L 4.59375 0.84375 C 4.446528 1.8839068 4.1266512 2.4136124 3.84375 2.8125 C 3.5608488 3.2113876 3.2731145 3.4916736 3.21875 4.0625 C 3.163549 4.6421078 3.450456 5.1140255 3.75 5.4375 C 3.899772 5.5992373 4.0536951 5.7221127 4.1875 5.8125 C 4.28384 5.877579 4.3419494 5.910003 4.40625 5.9375 C 4.40836 5.93999 4.4375 5.96875 4.4375 5.96875 L 4.46875 5.9375 C 4.47853 5.94076 4.490862 5.966465 4.5 5.96875 L 4.78125 6.0625 L 4.59375 5.84375 C 4.59375 5.84375 4.4637068 5.6764451 4.34375 5.46875 C 4.2237932 5.2610549 4.1036582 5.0053391 4.125 4.78125 C 4.1409366 4.6139161 4.179395 4.523635 4.25 4.40625 C 4.320605 4.288865 4.4219678 4.1354779 4.5625 3.9375 C 4.7417406 3.6849905 4.9643188 3.3168881 5.125 2.84375 C 5.5992843 3.2732718 5.8649474 3.5757412 5.96875 4.125 C 6.021496 4.4040984 5.9176967 4.8350456 5.8125 5.1875 C 5.7136292 5.51876 5.6380612 5.750767 5.625 5.78125 C 5.6241643 5.7832003 5.59375 5.8125 5.59375 5.8125 L 5.46875 6.125 L 5.75 5.90625 C 5.763538 5.8960455 5.7679618 5.8852952 5.78125 5.875 C 6.6522332 5.2001948 6.9681485 4.332324 6.78125 3.4375 C 6.5915 2.529024 5.8916213 1.6035704 4.71875 0.78125 L 4.59375 0.6875 z M 11.6875 0.9375 L 9.125 6.03125 L 11.71875 6.03125 L 9.5625 10.75 L 14.46875 4.5625 L 11.6875 4.5625 L 13.875 0.9375 L 11.6875 0.9375 z M 4.6875 1 C 5.7856958 1.7898517 6.4532827 2.6778599 6.625 3.5 C 6.7687653 4.1883129 6.4760915 4.8048032 5.9375 5.375 C 5.9636687 5.2988953 5.9736218 5.3071283 6 5.21875 C 6.108616 4.8548394 6.2213255 4.4380885 6.15625 4.09375 C 6.0349666 3.4519941 5.7494818 3.1131264 5.15625 2.59375 L 5.03125 2.5 L 5 2.625 C 4.8374257 3.1841077 4.6330338 3.568287 4.4375 3.84375 C 4.3003055 4.0370258 4.1746569 4.1779874 4.09375 4.3125 C 4.0128431 4.4470126 3.9556115 4.5598295 3.9375 4.75 C 3.9096726 5.0421874 4.0582757 5.3387591 4.1875 5.5625 C 4.087201 5.486872 3.9790574 5.4248705 3.875 5.3125 C 3.5981501 5.0135326 3.3572566 4.6081786 3.40625 4.09375 C 3.4556144 3.5754245 3.7093941 3.3160012 4 2.90625 C 4.2719626 2.5227856 4.5265043 1.9381379 4.6875 1 z M 3.09375 6.09375 C 3.3594489 8.8886436 3.160875 11.571074 2.46875 14.84375 L 3.28125 14.84375 L 6.9375 14.84375 L 7.0625 14.84375 L 7.78125 14.84375 L 13.09375 14.84375 L 13.09375 11.71875 L 7.25 11.71875 C 7.0108596 9.7633108 6.9803839 7.9436903 7.15625 6.09375 C 6.2882899 6.4730184 5.7894765 6.4201605 5.125 6.46875 C 4.4605236 6.4201605 3.9617101 6.4730184 3.09375 6.09375 z "
     style="color:#000000;display:inline;overflow:visible;visibility:visible;fill:#ebe7e4;fill-opacity:1;fill-rule:nonzero;stroke:none;stroke-width:0.91373607;marker:none;enable-background:accumulate;clip-rule:nonzero;opacity:0.81199999;isolation:auto;mix-blend-mode:normal;color-interpolation:sRGB;color-interpolation-filters:linearRGB;solid-color:#000000;solid-opacity:1;stroke-linecap:butt;stroke-linejoin:miter;stroke-miterlimit:4;stroke-dasharray:none;stroke-dashoffset:0;stroke-opacity:1;filter-blend-mode:normal;filter-gaussianBlur-deviation:0;color-rendering:auto;image-rendering:auto;shape-rendering:auto;text-rendering:auto"
     id="path4106"
     d="M 4.5507812,-0.07226562 A 0.76042137,0.76042137 0 0 0 3.8339844,0.6875 l 0,0.0703125 C 3.7023001,1.6553547 3.4749238,2.0173524 3.2226562,2.3730469 2.9832614,2.710591 2.5370817,3.1907212 2.4609375,3.9902344 2.4072159,4.5543088 2.5899779,5.0014979 2.8164062,5.3867188 A 0.76042137,0.76042137 0 0 0 2.3359375,6.1660156 C 2.5939207,8.879748 2.4054236,11.466353 1.7246094,14.685547 A 0.76042137,0.76042137 0 0 0 2.46875,15.603516 l 0.8125,0 3.65625,0 0.125,0 0.71875,0 5.3125,0 a 0.76042137,0.76042137 0 0 0 0.759766,-0.759766 l 0,-3.125 A 0.76042137,0.76042137 0 0 0 13.09375,10.958984 l -2.726562,0 4.697265,-5.9238278 A 0.76042137,0.76042137 0 0 0 14.46875,3.8027344 l -1.435547,0 1.492188,-2.4726563 A 0.76042137,0.76042137 0 0 0 13.875,0.17773438 l -2.1875,0 A 0.76042137,0.76042137 0 0 0 11.007812,0.59570312 L 8.4453125,5.6894531 A 0.76042137,0.76042137 0 0 0 9.125,6.7910156 l 1.410156,0 -1.6640622,3.6425784 a 0.76042137,0.76042137 0 0 0 -0.039063,0.52539 l -0.8398437,0 C 7.8313086,9.3147692 7.7642975,7.7413974 7.9140625,6.1660156 A 0.76042137,0.76042137 0 0 0 7.1210938,5.3339844 C 7.4750024,4.686441 7.6733138,3.9894698 7.5253906,3.28125 7.2802664,2.1076557 6.430314,1.0528409 5.1542969,0.15820312 l -0.1035157,-0.078125 a 0.76042137,0.76042137 0 0 0 -0.5,-0.15234374 z M 5.2089844,4.3222656 c -0.011133,0.028334 -0.036895,0.3532491 -0.125,0.6484375 -0.019953,0.066852 -0.033182,0.1066135 -0.050781,0.1640625 -0.014721,-0.02356 -0.016727,-0.02173 -0.03125,-0.046875 -0.094734,-0.164024 -0.1097737,-0.3327275 -0.1191406,-0.234375 0.00744,-0.078097 -0.025177,0.019643 0.019531,-0.054687 0.055726,-0.092648 0.1461726,-0.2343333 0.2792968,-0.421875 0.00882,-0.012423 0.018345,-0.041774 0.027344,-0.054687 z"
     transform="matrix(0.8572,0,0,0.8572,1.2092863,1.1088489)" />
</svg>

<?xml version="1.0" encoding="UTF-8" standalone="no"?>
<!-- Created with Inkscape (http://www.inkscape.org/) -->

<svg
   xmlns:dc="http://purl.org/dc/elements/1.1/"
   xmlns:cc="http://creativecommons.org/ns#"
   xmlns:rdf="http://www.w3.org/1999/02/22-rdf-syntax-ns#"
   xmlns:svg="http://www.w3.org/2000/svg"
   xmlns="http://www.w3.org/2000/svg"
   xmlns:sodipodi="http://sodipodi.sourceforge.net/DTD/sodipodi-0.dtd"
   xmlns:inkscape="http://www.inkscape.org/namespaces/inkscape"
   version="1.0"
   width="16"
   height="16"
   id="svg2"
   sodipodi:version="0.32"
   inkscape:version="0.48.4 r9939"
   sodipodi:docname="h_power_station_coal_shield.svg"
   inkscape:output_extension="org.inkscape.output.svg.inkscape">
  <metadata
     id="metadata10">
    <rdf:RDF>
      <cc:Work
         rdf:about="">
        <dc:format>image/svg+xml</dc:format>
        <dc:type
           rdf:resource="http://purl.org/dc/dcmitype/StillImage" />
        <cc:license
           rdf:resource="http://web.resource.org/cc/PublicDomain" />
        <dc:language>en</dc:language>
        <dc:title></dc:title>
      </cc:Work>
    </rdf:RDF>
  </metadata>
  <sodipodi:namedview
     inkscape:window-height="1004"
     inkscape:window-width="1920"
     inkscape:pageshadow="2"
     inkscape:pageopacity="0.0"
     guidetolerance="10.0"
     gridtolerance="10.0"
     objecttolerance="10.0"
     borderopacity="1.0"
     bordercolor="#666666"
     pagecolor="#ffffff"
     id="base"
     showgrid="false"
     inkscape:zoom="32"
     inkscape:cx="6.5633786"
     inkscape:cy="9.9799799"
     inkscape:window-x="1680"
     inkscape:window-y="0"
     inkscape:current-layer="svg2"
     inkscape:window-maximized="1"
     showguides="true"
     inkscape:guide-bbox="true" />
  <defs
     id="defs4">
    <inkscape:perspective
       sodipodi:type="inkscape:persp3d"
       inkscape:vp_x="0 : 290 : 1"
       inkscape:vp_y="0 : 1000 : 0"
       inkscape:vp_z="580 : 290 : 1"
       inkscape:persp3d-origin="290 : 193.33333 : 1"
       id="perspective12" />
    <style
       type="text/css"
       id="style6">
   
    .fil0 {fill:#EF7900}
   
  </style>
    <inkscape:perspective
       id="perspective6807"
       inkscape:persp3d-origin="29.116032 : 19.410688 : 1"
       inkscape:vp_z="58.232063 : 29.116032 : 1"
       inkscape:vp_y="0 : 1000 : 0"
       inkscape:vp_x="0 : 29.116032 : 1"
       sodipodi:type="inkscape:persp3d" />
    <inkscape:perspective
       id="perspective6954"
       inkscape:persp3d-origin="290 : 193.33333 : 1"
       inkscape:vp_z="580 : 290 : 1"
       inkscape:vp_y="0 : 1000 : 0"
       inkscape:vp_x="0 : 290 : 1"
       sodipodi:type="inkscape:persp3d" />
    <inkscape:perspective
       id="perspective2541"
       inkscape:persp3d-origin="240 : 160 : 1"
       inkscape:vp_z="480 : 240 : 1"
       inkscape:vp_y="0 : 1000 : 0"
       inkscape:vp_x="0 : 240 : 1"
       sodipodi:type="inkscape:persp3d" />
    <inkscape:perspective
       id="perspective2750"
       inkscape:persp3d-origin="215 : 143.33333 : 1"
       inkscape:vp_z="430 : 215 : 1"
       inkscape:vp_y="0 : 1000 : 0"
       inkscape:vp_x="0 : 215 : 1"
       sodipodi:type="inkscape:persp3d" />
    <inkscape:perspective
       id="perspective3730"
       inkscape:persp3d-origin="88.929146 : 101.19778 : 1"
       inkscape:vp_z="177.85829 : 151.79668 : 1"
       inkscape:vp_y="0 : 1000 : 0"
       inkscape:vp_x="0 : 151.79668 : 1"
       sodipodi:type="inkscape:persp3d" />
  </defs>
  <path
     sodipodi:type="inkscape:offset"
     inkscape:radius="0.76034534"
     inkscape:original="M 4.59375 0.6875 L 4.59375 0.84375 C 4.446528 1.8839068 4.1266512 2.4136124 3.84375 2.8125 C 3.5608488 3.2113876 3.2731145 3.4916736 3.21875 4.0625 C 3.163549 4.6421078 3.450456 5.1140255 3.75 5.4375 C 3.899772 5.5992373 4.0536951 5.7221127 4.1875 5.8125 C 4.28384 5.877579 4.3419494 5.910003 4.40625 5.9375 C 4.40836 5.93999 4.4375 5.96875 4.4375 5.96875 L 4.46875 5.9375 C 4.47853 5.94076 4.490862 5.966465 4.5 5.96875 L 4.78125 6.0625 L 4.59375 5.84375 C 4.59375 5.84375 4.4637068 5.6764451 4.34375 5.46875 C 4.2237932 5.2610549 4.1036582 5.0053391 4.125 4.78125 C 4.1409366 4.6139161 4.179395 4.523635 4.25 4.40625 C 4.320605 4.288865 4.4219678 4.1354779 4.5625 3.9375 C 4.7417406 3.6849905 4.9643188 3.3168881 5.125 2.84375 C 5.5992843 3.2732718 5.8649474 3.5757412 5.96875 4.125 C 6.021496 4.4040984 5.9176967 4.8350456 5.8125 5.1875 C 5.7136292 5.51876 5.6380612 5.750767 5.625 5.78125 C 5.6241643 5.7832003 5.59375 5.8125 5.59375 5.8125 L 5.46875 6.125 L 5.75 5.90625 C 5.763538 5.8960455 5.7679618 5.8852952 5.78125 5.875 C 6.6522332 5.2001948 6.9681485 4.332324 6.78125 3.4375 C 6.5915 2.529024 5.8916213 1.6035704 4.71875 0.78125 L 4.59375 0.6875 z M 11.6875 0.9375 L 9.125 6.03125 L 11.71875 6.03125 L 9.5625 10.75 L 14.46875 4.5625 L 11.6875 4.5625 L 13.875 0.9375 L 11.6875 0.9375 z M 4.6875 1 C 5.7856958 1.7898517 6.4532827 2.6778599 6.625 3.5 C 6.7687653 4.1883129 6.4760915 4.8048032 5.9375 5.375 C 5.9636687 5.2988953 5.9736218 5.3071283 6 5.21875 C 6.108616 4.8548394 6.2213255 4.4380885 6.15625 4.09375 C 6.0349666 3.4519941 5.7494818 3.1131264 5.15625 2.59375 L 5.03125 2.5 L 5 2.625 C 4.8374257 3.1841077 4.6330338 3.568287 4.4375 3.84375 C 4.3003055 4.0370258 4.1746569 4.1779874 4.09375 4.3125 C 4.0128431 4.4470126 3.9556115 4.5598295 3.9375 4.75 C 3.9096726 5.0421874 4.0582757 5.3387591 4.1875 5.5625 C 4.087201 5.486872 3.9790574 5.4248705 3.875 5.3125 C 3.5981501 5.0135326 3.3572566 4.6081786 3.40625 4.09375 C 3.4556144 3.5754245 3.7093941 3.3160012 4 2.90625 C 4.2719626 2.5227856 4.5265043 1.9381379 4.6875 1 z M 3.09375 6.09375 C 3.3594489 8.8886436 3.160875 11.571074 2.46875 14.84375 L 3.28125 14.84375 L 6.9375 14.84375 L 7.0625 14.84375 L 7.78125 14.84375 L 13.09375 14.84375 L 13.09375 11.71875 L 7.25 11.71875 C 7.0108596 9.7633108 6.9803839 7.9436903 7.15625 6.09375 C 6.2882899 6.4730184 5.7894765 6.4201605 5.125 6.46875 C 4.4605236 6.4201605 3.9617101 6.4730184 3.09375 6.09375 z "
     style="color:#000000;fill:#f1eae4;fill-opacity:0.77272728;fill-rule:nonzero;stroke:none;stroke-width:0.91394931;marker:none;visibility:visible;display:inline;overflow:visible;enable-background:accumulate"
     id="path4106"
     d="m 4.40625,-0.0625 a 0.76042137,0.76042137 0 0 0 -0.5625,0.75 l 0,0.0625 C 3.7129251,1.6743074 3.4743565,2.0145977 3.21875,2.375 2.9793551,2.7125441 2.5448942,3.2004868 2.46875,4 2.4161063,4.5527562 2.5931875,4.9935634 2.8125,5.375 A 0.76042137,0.76042137 0 0 0 2.34375,6.15625 c 0.2579832,2.7137324 0.055814,5.312057 -0.625,8.53125 a 0.76042137,0.76042137 0 0 0 0.75,0.90625 l 0.8125,0 3.65625,0 0.125,0 0.71875,0 5.3125,0 a 0.76042137,0.76042137 0 0 0 0.75,-0.75 l 0,-3.125 a 0.76042137,0.76042137 0 0 0 -0.75,-0.75 l -2.75,0 4.71875,-5.9375 A 0.76042137,0.76042137 0 0 0 14.46875,3.8125 l -1.4375,0 1.5,-2.46875 A 0.76042137,0.76042137 0 0 0 13.875,0.1875 l -2.1875,0 A 0.76042137,0.76042137 0 0 0 11,0.59375 L 8.4375,5.6875 A 0.76042137,0.76042137 0 0 0 9.125,6.78125 l 1.40625,0 L 8.875,10.4375 A 0.76042137,0.76042137 0 0 0 8.84375,10.96875 L 8,10.96875 C 7.8378453,9.3196029 7.7560832,7.735859 7.90625,6.15625 A 0.76042137,0.76042137 0 0 0 7.125,5.34375 C 7.4840195,4.6932574 7.6800861,3.9938408 7.53125,3.28125 7.2886504,2.1197431 6.4416538,1.0761911 5.1875,0.1875 L 5.15625,0.15625 5.0625,0.09375 A 0.76042137,0.76042137 0 0 0 4.40625,-0.0625 z M 5.1875,4.375 C 5.1739593,4.4424895 5.1761559,4.6926548 5.09375,4.96875 5.0713596,5.0437675 5.050615,5.0932351 5.03125,5.15625 5.0128082,5.127237 5.0183329,5.1254918 5,5.09375 4.9052659,4.9297259 4.8843669,4.7453974 4.875,4.84375 4.8824378,4.7656533 4.8615412,4.886831 4.90625,4.8125 4.9619764,4.7198515 5.0543758,4.5625417 5.1875,4.375 z" />
</svg>
